X: 33258
T: Pump The Weasel
R: polka
M: 2/4
K: Gmajor
"C"EF GF|"G"GA Bc|dB AG|BA "D"A2|
"C"EF GF|"G"GA Be|de/d/ BA|AG G2:|
"C"ed cg|"D"fd "G"B2|"C"cB Gd|"D"A2 A2|
"C"ed cg|"D"fd "G"B2|"C"cB "D"AF|"G"G2 G2:|

